X:1
T:Ama pur
T:Ama pur
T:Claudio Saracini
T:Aria
T:Source : Le terze Musiche per cantar e sonar---Venetia---A.Vincenti---1620. Editor : André Vierendeels (09/12/15).
T:Notes : Original clefs : C1, F4 
C:Claudio Saracini
%%score 1 2
L:1/8
Q:1/4=92
M:4/4
K:F
V:1 treble nm="Soprano" snm="S"
V:2 bass nm="BC" snm="BC"
V:1
 GA B2 Bc d2 | f6 ed | c4 B4 | BB B2 dd d2 | B6 AG | A8 | G8 :: z2 Bc dB_ed | c4 B4 | z2 de fdgf | %10
w: A- ma pur, a- ma pur,|Nin- fa gra-|di- ta,|a- ma pur, a- ma pur,|Nin- fa gra-|di-|ta.|Hor che sei nel e- ta|ver- de,|che ben fol- l'e che gia|
w: A- ma pur, a- ma pur,|Nin- fa vez-|zo- sa,|a- ma pur, a- ma pur,|Nin- fa vez-|zo-|sa.|Hor ch'ai gra- tie pel- le-|gri- ni,|che s'au- rai di ne- ve'il|
w: A- ma pur, a- ma pur,|Nin- fa gen-|ti- le,|a- ma pur, a- ma pur,|Nin- fa gen-|ti-|le.|Hor che sei si par- go-|let- ta,|per- che'il tem- po voi' a'un|
w: A- ma pur, a- ma pur,|Ni- fa mi'al-|te- ra,|a- ma pur, a- ma pur,|Nin- fa mi'al-|te-|ra.|Hor che sei su nel e|ri- re,|fria che'il fior ve- di lan-|
 e4 d4 | z2 AB cAGF | G4 F4 | Bc d2 GA B2- | BAcB A4 | G8 :| %16
w: per- de,|sen- z'a- mar lie- ta'e fio-|ri- ta,|a- ma pur, a- ma pur,|_ Nin- fa gra- di-|ta.|
w: cri- ne,|ad' o- gn'or fa- rai no-|io- sa,|a- ma pur, a- ma pur,|_ Nin- fa vez- zo-|sa.|
w: fret- ta,|vien l'in- ver- no'e fug- ge'A-|pri- le,|a- ma pur, a- ma pur,|_ Nin- fa gen- ti-|le.|
w: gui- re,|e pas- sar la pri- ma-|ve- ra,|a- ma pur, a- ma pur,|_ Nin- fa mi'al- te-|ra.|
V:2
 G,4 G,,4 | D,2 C,B,, F,4- | F,4 B,,4 | G,,4 G,,4 | G,,2 F,,_E,, D,4- | D,8 | G,,8 :: G,6 _E,2 | %8
 F,4 B,,4 | B,,4 B,,2 G,,2 | A,,4 D,4 | F,4 F,4 | C,4 F,,4 | G,,4 G,,4 | G,2 C,2 D,4 | G,,8 :| %16

